X:1
T:The Bog Down in the Valley-O
M:2/4
L:1/8
K:G
 B2 B3/2 A/2| GE E3/2 E/2| DG GA| BA A2| B2 B3/2 A/2| GE E3/2 E/2|\
 Dd dB| AG G3/2 G/2| BB A/2A/2 G| BG A3/2 G/2| B2 d3/2 c/2| BA A G/2G/2|\
 B G/2G/2 A/2A/2 G/2G/2| B/2B/2 G/2G/2 A G/2G/2| B G/2G/2 A G/2G/2|\
 B G/2G/2 A G/2G/2| B G/2G/2 A G/2G/2| B G/2G/2 A G/2G/2| Bd dB| AG G2|\


